Newaita-dark/apps/256/qpdfview.svg

<?xml version="1.0" encoding="UTF-8"?>
<svg xmlns="http://www.w3.org/2000/svg" xmlns:xlink="http://www.w3.org/1999/xlink" width="256pt" height="256pt" viewBox="0 0 256 256" version="1.1">
<defs>
<linearGradient id="linear0" gradientUnits="userSpaceOnUse" x1="254" y1="233.5" x2="254" y2="254.666672" gradientTransform="matrix(0.500048,0,0,0.500048,-0.0000305205,107.510281)">
<stop offset="0" style="stop-color:rgb(0%,0%,0%);stop-opacity:0.27451;"/>
<stop offset="1" style="stop-color:rgb(0%,0%,0%);stop-opacity:0;"/>
</linearGradient>
<radialGradient id="radial0" gradientUnits="userSpaceOnUse" cx="450.908936" cy="189.579361" fx="450.908936" fy="189.579361" r="21.166656" gradientTransform="matrix(0.00000139336,-0.62506,-1.125108,-0.000000812309,401.168685,508.762661)">
<stop offset="0" style="stop-color:rgb(0%,0%,0%);stop-opacity:0.313725;"/>
<stop offset="0.222222" style="stop-color:rgb(0%,0%,0%);stop-opacity:0.27451;"/>
<stop offset="1" style="stop-color:rgb(0%,0%,0%);stop-opacity:0;"/>
</radialGradient>
<radialGradient id="radial1" gradientUnits="userSpaceOnUse" cx="450.908936" cy="189.579361" fx="450.908936" fy="189.579361" r="21.166656" gradientTransform="matrix(-0.00000139336,0.62506,1.125108,0.000000812309,-147.144391,-60.219842)">
<stop offset="0" style="stop-color:rgb(0%,0%,0%);stop-opacity:0.313725;"/>
<stop offset="0.222222" style="stop-color:rgb(0%,0%,0%);stop-opacity:0.27451;"/>
<stop offset="1" style="stop-color:rgb(0%,0%,0%);stop-opacity:0;"/>
</radialGradient>
<radialGradient id="radial2" gradientUnits="userSpaceOnUse" cx="450.908936" cy="189.579361" fx="450.908936" fy="189.579361" r="21.166656" gradientTransform="matrix(-0.00000139336,-0.62506,1.125108,-0.000000812309,-147.144391,508.762661)">
<stop offset="0" style="stop-color:rgb(0%,0%,0%);stop-opacity:0.313725;"/>
<stop offset="0.222222" style="stop-color:rgb(0%,0%,0%);stop-opacity:0.27451;"/>
<stop offset="1" style="stop-color:rgb(0%,0%,0%);stop-opacity:0;"/>
</radialGradient>
<radialGradient id="radial3" gradientUnits="userSpaceOnUse" cx="450.908936" cy="189.579361" fx="450.908936" fy="189.579361" r="21.166656" gradientTransform="matrix(0.00000139336,0.62506,-1.125108,0.000000812309,401.16867,-60.219835)">
<stop offset="0" style="stop-color:rgb(0%,0%,0%);stop-opacity:0.313725;"/>
<stop offset="0.222222" style="stop-color:rgb(0%,0%,0%);stop-opacity:0.27451;"/>
<stop offset="1" style="stop-color:rgb(0%,0%,0%);stop-opacity:0;"/>
</radialGradient>
<linearGradient id="linear1" gradientUnits="userSpaceOnUse" x1="306.916656" y1="-25.791676" x2="305.954559" y2="-141.414581" gradientTransform="matrix(0.602797,0,0,1.739297,-46.832105,269.130786)">
<stop offset="0" style="stop-color:rgb(14.901961%,65.098039%,60.392157%);stop-opacity:1;"/>
<stop offset="1" style="stop-color:rgb(30.196078%,71.372549%,67.45098%);stop-opacity:1;"/>
</linearGradient>
<linearGradient id="linear2" gradientUnits="userSpaceOnUse" x1="165.484848" y1="-25.791672" x2="165.484848" y2="-141.414581" gradientTransform="matrix(4.556143,0,0,13.146184,-353.972656,2034.180176)">
<stop offset="0" style="stop-color:rgb(25.882353%,25.882353%,25.882353%);stop-opacity:1;"/>
<stop offset="1" style="stop-color:rgb(38.039216%,38.039216%,38.039216%);stop-opacity:1;"/>
</linearGradient>
<linearGradient id="linear3" gradientUnits="userSpaceOnUse" x1="840" y1="1135.117188" x2="840" y2="175.117218" gradientTransform="matrix(0.264583,0,0,0.264583,-21.166656,-214.999756)">
<stop offset="0" style="stop-color:rgb(25.882353%,25.882353%,25.882353%);stop-opacity:1;"/>
<stop offset="1" style="stop-color:rgb(38.039216%,38.039216%,38.039216%);stop-opacity:1;"/>
</linearGradient>
</defs>
<g id="surface1">
<path style=" stroke:none;fill-rule:nonzero;fill:url(#linear0);" d="M 63.507812 224.269531 L 190.519531 224.269531 L 190.519531 234.855469 L 63.507812 234.855469 Z M 63.507812 224.269531 "/>
<path style=" stroke:none;fill-rule:nonzero;fill:url(#radial0);" d="M 190.519531 224.269531 L 211.6875 224.269531 L 211.6875 213.6875 L 190.519531 213.6875 Z M 190.519531 224.269531 "/>
<path style=" stroke:none;fill-rule:nonzero;fill:url(#radial1);" d="M 63.507812 224.269531 L 42.335938 224.269531 L 42.335938 234.855469 L 63.507812 234.855469 Z M 63.507812 224.269531 "/>
<path style=" stroke:none;fill-rule:nonzero;fill:url(#radial2);" d="M 63.507812 224.269531 L 42.335938 224.269531 L 42.335938 213.6875 L 63.507812 213.6875 Z M 63.507812 224.269531 "/>
<path style=" stroke:none;fill-rule:nonzero;fill:url(#radial3);" d="M 190.519531 224.269531 L 211.6875 224.269531 L 211.6875 234.855469 L 190.519531 234.855469 Z M 190.519531 224.269531 "/>
<path style=" stroke:none;fill-rule:nonzero;fill:url(#linear1);" d="M 52.921875 23.167969 L 201.101562 23.167969 C 206.949219 23.167969 211.6875 27.90625 211.6875 33.753906 L 211.6875 213.6875 C 211.6875 219.53125 206.949219 224.269531 201.101562 224.269531 L 52.921875 224.269531 C 47.074219 224.269531 42.335938 219.53125 42.335938 213.6875 L 42.335938 33.753906 C 42.335938 27.90625 47.074219 23.167969 52.921875 23.167969 Z M 52.921875 23.167969 "/>
<path style="fill-rule:nonzero;fill:url(#linear2);stroke-width:11.338583;stroke-linecap:round;stroke-linejoin:miter;stroke:rgb(12.941177%,12.941177%,12.941177%);stroke-opacity:1;stroke-miterlimit:4;" d="M 400.001193 175.11124 C 355.684556 175.11124 319.989144 210.806652 319.989144 255.123288 L 319.989144 1615.121439 C 319.989144 1659.438076 355.684556 1695.103963 400.001193 1695.103963 L 519.989741 1695.103963 L 519.989741 175.11124 Z M 400.001193 175.11124 " transform="matrix(0.132304,0,0,0.132304,0,0)"/>
<path style=" stroke:none;fill-rule:nonzero;fill:rgb(0%,0%,0%);fill-opacity:0.196078;" d="M 52.921875 223.671875 C 47.058594 223.671875 42.335938 218.953125 42.335938 213.089844 L 42.335938 211.765625 C 42.335938 217.628906 47.058594 222.351562 52.921875 222.351562 L 201.101562 222.351562 C 206.964844 222.351562 211.6875 217.628906 211.6875 211.765625 L 211.6875 213.089844 C 211.6875 218.953125 206.964844 223.671875 201.101562 223.671875 Z M 52.921875 223.671875 "/>
<path style="fill-rule:nonzero;fill:url(#linear3);stroke-width:3;stroke-linecap:round;stroke-linejoin:round;stroke:rgb(12.941177%,12.941177%,12.941177%);stroke-opacity:1;stroke-miterlimit:4;" d="M 179.920318 -168.668487 L 179.920318 85.330695 C 195.793803 42.9988 206.378729 42.9988 222.252213 85.330695 L 222.252213 -168.668487 Z M 179.920318 -168.668487 " transform="matrix(0.500048,0,0,0.500048,0,107.510266)"/>
<path style=" stroke:none;fill-rule:nonzero;fill:rgb(100%,100%,100%);fill-opacity:0.392157;" d="M 52.921875 23.765625 C 47.058594 23.765625 42.335938 28.488281 42.335938 34.351562 L 42.335938 35.675781 C 42.335938 29.808594 47.058594 25.078125 52.921875 25.089844 L 201.101562 25.089844 C 206.964844 25.078125 211.6875 29.808594 211.6875 35.675781 L 211.6875 34.351562 C 211.6875 28.488281 206.964844 23.765625 201.101562 23.765625 Z M 52.921875 23.765625 "/>
<path style=" stroke:none;fill-rule:nonzero;fill:rgb(12.941177%,12.941177%,12.941177%);fill-opacity:1;" d="M 52.921875 22.417969 C 46.65625 22.417969 41.585938 27.488281 41.585938 33.753906 L 41.585938 213.6875 C 41.585938 219.953125 46.65625 225.023438 52.921875 225.023438 L 201.101562 225.023438 C 207.367188 225.023438 212.4375 219.953125 212.4375 213.6875 L 212.4375 33.753906 C 212.4375 27.488281 207.367188 22.417969 201.101562 22.417969 Z M 52.921875 23.917969 L 201.101562 23.917969 C 206.5625 23.917969 210.9375 28.292969 210.9375 33.753906 L 210.9375 213.6875 C 210.9375 219.148438 206.5625 223.519531 201.101562 223.519531 L 52.921875 223.519531 C 47.460938 223.519531 43.085938 219.148438 43.085938 213.6875 L 43.085938 33.753906 C 43.085938 28.292969 47.460938 23.917969 52.921875 23.917969 Z M 52.921875 23.917969 "/>
</g>
</svg>

<svg xmlns="http://www.w3.org/2000/svg" width="256pt" height="256pt" viewBox="0 0 256 256"><defs><linearGradient id="a" gradientUnits="userSpaceOnUse" x1="254" y1="233.5" x2="254" y2="254.667" gradientTransform="matrix(.50005 0 0 .50005 0 107.51)"><stop offset="0" stop-opacity=".275"/><stop offset="1" stop-opacity="0"/></linearGradient><radialGradient id="b" gradientUnits="userSpaceOnUse" cx="450.909" cy="189.579" fx="450.909" fy="189.579" r="21.167" gradientTransform="matrix(0 -.62506 -1.1251 0 401.169 508.763)"><stop offset="0" stop-opacity=".314"/><stop offset=".222" stop-opacity=".275"/><stop offset="1" stop-opacity="0"/></radialGradient><radialGradient id="c" gradientUnits="userSpaceOnUse" cx="450.909" cy="189.579" fx="450.909" fy="189.579" r="21.167" gradientTransform="matrix(0 .62506 1.1251 0 -147.144 -60.22)"><stop offset="0" stop-opacity=".314"/><stop offset=".222" stop-opacity=".275"/><stop offset="1" stop-opacity="0"/></radialGradient><radialGradient id="d" gradientUnits="userSpaceOnUse" cx="450.909" cy="189.579" fx="450.909" fy="189.579" r="21.167" gradientTransform="matrix(0 -.62506 1.1251 0 -147.144 508.763)"><stop offset="0" stop-opacity=".314"/><stop offset=".222" stop-opacity=".275"/><stop offset="1" stop-opacity="0"/></radialGradient><radialGradient id="e" gradientUnits="userSpaceOnUse" cx="450.909" cy="189.579" fx="450.909" fy="189.579" r="21.167" gradientTransform="matrix(0 .62506 -1.1251 0 401.169 -60.22)"><stop offset="0" stop-opacity=".314"/><stop offset=".222" stop-opacity=".275"/><stop offset="1" stop-opacity="0"/></radialGradient><linearGradient id="f" gradientUnits="userSpaceOnUse" x1="306.917" y1="-25.792" x2="305.955" y2="-141.415" gradientTransform="matrix(.6028 0 0 1.7393 -46.832 269.13)"><stop offset="0" stop-color="#26a69a"/><stop offset="1" stop-color="#4db6ac"/></linearGradient><linearGradient id="g" gradientUnits="userSpaceOnUse" x1="165.485" y1="-25.792" x2="165.485" y2="-141.415" gradientTransform="matrix(4.55614 0 0 13.14618 -353.973 2034.18)"><stop offset="0" stop-color="#424242"/><stop offset="1" stop-color="#616161"/></linearGradient><linearGradient id="h" gradientUnits="userSpaceOnUse" x1="840" y1="1135.117" x2="840" y2="175.117" gradientTransform="matrix(.26458 0 0 .26458 -21.167 -215)"><stop offset="0" stop-color="#424242"/><stop offset="1" stop-color="#616161"/></linearGradient></defs><path d="M63.508 224.27H190.52v10.585H63.508zm0 0" fill="url(#a)"/><path d="M190.52 224.27h21.167v-10.583H190.52zm0 0" fill="url(#b)"/><path d="M63.508 224.27H42.336v10.585h21.172zm0 0" fill="url(#c)"/><path d="M63.508 224.27H42.336v-10.583h21.172zm0 0" fill="url(#d)"/><path d="M190.52 224.27h21.167v10.585H190.52zm0 0" fill="url(#e)"/><path d="M52.922 23.168h148.18c5.847 0 10.585 4.738 10.585 10.586v179.934c0 5.843-4.738 10.582-10.585 10.582H52.922c-5.848 0-10.586-4.739-10.586-10.583V33.755c0-5.848 4.738-10.586 10.586-10.586zm0 0" fill="url(#f)"/><path d="M400.001 175.111c-44.316 0-80.012 35.696-80.012 80.012v1359.998c0 44.317 35.696 79.983 80.012 79.983H519.99V175.111zm0 0" transform="scale(.1323)" fill="url(#g)" stroke-width="11.339" stroke-linecap="round" stroke="#212121"/><path d="M52.922 223.672a10.561 10.561 0 0 1-10.586-10.582v-1.324a10.564 10.564 0 0 0 10.586 10.586h148.18a10.564 10.564 0 0 0 10.585-10.586v1.324a10.561 10.561 0 0 1-10.585 10.582zm0 0" fill-opacity=".196"/><path d="M179.92-168.668V85.33c15.874-42.332 26.459-42.332 42.332 0v-254zm0 0" transform="matrix(.50005 0 0 .50005 0 107.51)" fill="url(#h)" stroke-width="3" stroke-linecap="round" stroke-linejoin="round" stroke="#212121"/><path d="M52.922 23.766a10.564 10.564 0 0 0-10.586 10.586v1.324c0-5.867 4.723-10.598 10.586-10.586h148.18c5.863-.012 10.585 4.719 10.585 10.586v-1.324a10.564 10.564 0 0 0-10.585-10.586zm0 0" fill="#fff" fill-opacity=".392"/><path d="M52.922 22.418a11.33 11.33 0 0 0-11.336 11.336v179.934a11.33 11.33 0 0 0 11.336 11.335h148.18a11.33 11.33 0 0 0 11.335-11.335V33.754a11.33 11.33 0 0 0-11.335-11.336zm0 1.5h148.18a9.8 9.8 0 0 1 9.835 9.836v179.934a9.796 9.796 0 0 1-9.835 9.832H52.922a9.796 9.796 0 0 1-9.836-9.833V33.755a9.8 9.8 0 0 1 9.836-9.836zm0 0" fill="#212121"/></svg>
